!!!COM: Mozart
!!!OTL: Zwolf Variationen in Es, uber die Romanze 'Je suis Lindor' aus der Komodie 'Le Barbier de Seville'
!!!Variation: Variation 4 c
**function	**harm	**kern	**kern
*	*	*clefF4	*clefG2
*	*	*k[b-e-a-]	*k[b-e-a-]
*M2/4	*M2/4	*M2/4	*M2/4
*E-:	*E-:	*E-:	*E-:
=97	=97	=97	=97
2D	2V7	8BB-L	24r
.	.	.	(24dLL
.	.	.	24b-JJ)
*	*	*clefG2	*
.	.	(8bb-J	24r
.	.	.	(24dLL
.	.	.	24b-JJ)
.	.	8aaL	24r
.	.	.	(24e-LL
.	.	.	24ccJJ)
.	.	8aa-J	24r
.	.	.	(24fLL
.	.	.	24ddJJ)
=98	=98	=98	=98
8D	8I	8ggL)	24r
.	.	.	(24gLL
.	.	.	24ee-JJ)
*	*	*clefF4	*
8D	8i	8E-J 8e-	24r
.	.	.	(24g-LL
.	.	.	24ee-JJ)
8D	8-VI	8C-L 8c-	24r
.	.	.	(24g-LL
.	.	.	24ee-JJ)
8D	8viioD7/V	8AAJ 8A	24r
.	.	.	(24g-LL
.	.	.	24ee-JJ)
=99	=99	=99	=99
2D	2V7	8BB-L 8B-	24r
.	.	.	(24fLL
.	.	.	24ddJJ)
*	*	*clefG2	*
.	.	(8bb-J	24r
.	.	.	(24dLL
.	.	.	24b-JJ)
.	.	8cccL	24r
.	.	.	(24e-LL
.	.	.	24aJJ)
.	.	8dddJ	24r
.	.	.	(24fLL
.	.	.	24a-JJ)
=100	=100	=100	=100
8D	8I	8eee-L)	24r
.	.	.	(24e-LL
.	.	.	24g-JJ)
*	*	*clefF4	*
8D	8i	8EE-J 8E-	24r
.	.	.	(24e-LL
.	.	.	24g-JJ)
8D	8-VI	8CC-L 8C-	24r
.	.	.	(24g-LL
.	.	.	24ee-JJ)
8D	8viioD7/V	8AAAJ 8AA	24r
.	.	.	(24g-LL
.	.	.	24ee-JJ)
=101	=101	=101	=101
2D	2V7	8BBB-L 8BB-	24r
.	.	.	(24fLL
.	.	.	24ee-JJ)
*	*	*clefG2	*
.	.	8aa-J	24r
.	.	.	(24fLL
.	.	.	24ddJJ)
.	.	8aa-L	24r
.	.	.	(24e-LL
.	.	.	24ccJJ)
.	.	8aa-J	24r
.	.	.	(24dLL
.	.	.	24b-JJ)
*	*	*clefF4	*
=102	=102	=102	=102
2D	2V7d	8AA-L 8A-	24r
.	.	.	(24fLL
.	.	.	24ee-JJ)
*	*	*clefG2	*
.	.	8aa-J	24r
.	.	.	(24fLL
.	.	.	24ddJJ)
.	.	8aa-L	24r
.	.	.	(24e-LL
.	.	.	24ccJJ)
.	.	8aa-J	24r
.	.	.	(24dLL
.	.	.	24b-JJ)
=103	=103	=103	=103
4T	4I	8ggL	24r
.	.	.	(24e-LL
.	.	.	24b-JJ)
.	.	8bbJ	24r
.	.	.	(24e-LL
.	.	.	24gJJ)
8P	8IVc	8cccL	24r
.	.	.	(24e-LL
.	.	.	24a-JJ)
8P	8viioD7c/V	8aaJ	24r
.	.	.	(24e-LL
.	.	.	24g-JJ)
=104	=104	=104	=104
8D	8I	8bb-L	24r
.	.	.	24e-LL
.	.	.	24gJJ
*	*	*clefF4	*
8D	8Cto7/V	8B-J 8e	24r
.	.	.	24gLL
.	.	.	24b-JJ
4D	4V7	8B-L 8f	24r
.	.	.	24a-LL
.	.	.	24b-JJ
.	.	8B-J 8d	24r
.	.	.	24fLL
.	.	.	24b-JJ
=105	=105	=105	=105
2T	2I	8e-L	24r
.	.	.	24gLL
.	.	.	24b-JJ
.	.	8BB-J 8B-	24r
.	.	.	24b-LL
.	.	.	24ee-JJ
.	.	8GGL 8G	24r
.	.	.	24ee-LL
.	.	.	24ggJJ
.	.	8EE-J 8E-	24r
.	.	.	24ggLL
.	.	.	24bb-JJ
*-	*-	*-	*-
